X:1
T:Title
L:1/8
Q:1/4=100
M:2/4
K:Eb
V:1 treble nm="Grand Piano"
V:1
 z C CC | G2 FF | A2 G2- | GG GG | c2 G2- | GD E>D | CG/A/ G/F/E/D/ | CG GG | A2 =BA | G2 c2 | %10
 c4- | cc =BA | G>F ED | E>D C2- | C4 | z G GA | G2 =E2 | F2 G2 | F4 | EE ED | E>D C2 | G2 A2 | %22
 G4- | Gc BG | BA FA | G4- | GG GA | G2 F2 | E2 D2 | C4 | z c =BA | G_G EG | GG/A/ =BG | AG E_G | %34
 G4- | Gc =BA | G>_G E2 | z E2 _G | G4- | GA/G/ _G=G | A2 =BA | G2 c2 | c4- | cc =Bc | d3 =B | %45
 c3 A | =B>A G2- | GA/G/ _G=G | A2 =BA | G2 c2 | c4 | z c =Bc | d4- | dd cd | e4- | ee dc | d4- | %57
 de/d/ d/c/c/=B/ | c4- | cc =B_B | =A_A G_G | G4- | GG GA | G2 F2 | E2 D2 | C4 | z C CC | G2 FF | %68
 A2 G2- | GG GG | c2 G2- | GD E>D | z G GA | G2 =E2 | F2 G2 | F4 | EE ED | E>D C2 | G2 A2 | G4- | %80
 Gc BG | BA FA | G4- | GG GA | G2 F2 | E2 D2 | C4 | z c =BA | G_G EG | GG/A/ =BG | AG E_G | G4- | %92
 Gc =BA | G>_G E2 | z E2 _G | G4- | GA/G/ _G=G | A2 =BA | G2 c2 | c4- | cc =Bc | d3 =B | c3 A | %103
 =B>A G2- | GA/G/ _G=G | A2 =BA | G2 c2 | c4 | z c =Bc | d4- | dd cd | e4- | ee dc | d4- | %114
 de/d/ d/c/c/=B/ | c4- | cc =B_B | =A_A G_G | G4- | GG GA | G2 F2 | E2 D2 | C4 |] %123

